X:1
T:Tottenham, CM
T:Tottenham, CM
T:Thomas Greatorex (1758-1831)
T:Public Domain Courtesy of the Cyber Hymnal™
C:Thomas Greatorex (1758-1831)
Z:Public Domain
Z:Courtesy of the Cyber Hymnal™
%%score ( 1 2 ) ( 3 4 )
L:1/8
Q:1/4=103
M:4/4
K:G
V:1 treble 
V:2 treble 
V:3 bass 
V:4 bass 
V:1
 [Gd]2 [Fd][Fc] [GB]2 [DG]2 | e2 e2 [Bd]2 [Bd]2 | [Ac]2 [FA]2 [GB]2 (cA) | (G4 F2) z2 | %4
 D2 [DE][DF] [DG]2 [DG]2 | [EA]2 [GB]2 [Gc]2 e2 | [Gd]2 ([Ac][EA]) [DG]2 [DF]2 | [DG]6 z2 |] %8
V:2
 x8 | (EF) (GA) x4 | x6 E2 | D6 x2 | D2 x6 | x6 (EF) | x8 | x8 |] %8
V:3
 [G,B,]2 [D,A,][D,A,] [E,G,]2 [B,,D]2 | D2 C2 [G,B,]2 [^G,E]2 | [A,E]2 [D,D]2 [G,D]2 (EC) | %3
 (B,4 A,2) z2 | [D,F,]2 [C,G,][C,A,] [B,,G,]2 [G,B,]2 | [G,C]2 [=F,D]2 [E,C]2 [C,C]2 | %6
 [B,,D]2 (EC) [D,B,]2 [D,A,]2 | [G,,B,]6 z2 |] %8
V:4
 x8 | (C,D,) (E,F,) x4 | x6 C,2 | D,6 x2 | x8 | x8 | x2 C,2 x4 | x8 |] %8

